images/50952988.svg

<?xml version="1.0" encoding="UTF-8"?>
<svg xmlns="http://www.w3.org/2000/svg" xmlns:xlink="http://www.w3.org/1999/xlink" width="300pt" height="300pt" viewBox="0 0 300 300" version="1.1">
<defs>
<g>
<symbol overflow="visible" id="glyph0-0">
<path style="stroke:none;" d="M 0.453125 1.59375 L 0.453125 -6.34375 L 4.953125 -6.34375 L 4.953125 1.59375 Z M 0.953125 1.09375 L 4.453125 1.09375 L 4.453125 -5.84375 L 0.953125 -5.84375 Z M 0.953125 1.09375 "/>
</symbol>
<symbol overflow="visible" id="glyph0-1">
<path style="stroke:none;" d="M 4.8125 -6.34375 L 4.8125 -5.484375 C 4.476562 -5.640625 4.160156 -5.753906 3.859375 -5.828125 C 3.566406 -5.910156 3.28125 -5.953125 3 -5.953125 C 2.507812 -5.953125 2.132812 -5.859375 1.875 -5.671875 C 1.613281 -5.484375 1.484375 -5.21875 1.484375 -4.875 C 1.484375 -4.582031 1.570312 -4.363281 1.75 -4.21875 C 1.925781 -4.070312 2.253906 -3.953125 2.734375 -3.859375 L 3.28125 -3.75 C 3.9375 -3.625 4.421875 -3.398438 4.734375 -3.078125 C 5.054688 -2.765625 5.21875 -2.34375 5.21875 -1.8125 C 5.21875 -1.175781 5.003906 -0.691406 4.578125 -0.359375 C 4.148438 -0.0351562 3.523438 0.125 2.703125 0.125 C 2.390625 0.125 2.054688 0.0859375 1.703125 0.015625 C 1.359375 -0.046875 1 -0.148438 0.625 -0.296875 L 0.625 -1.203125 C 0.976562 -1.003906 1.328125 -0.851562 1.671875 -0.75 C 2.023438 -0.644531 2.367188 -0.59375 2.703125 -0.59375 C 3.203125 -0.59375 3.585938 -0.691406 3.859375 -0.890625 C 4.140625 -1.085938 4.28125 -1.375 4.28125 -1.75 C 4.28125 -2.070312 4.179688 -2.320312 3.984375 -2.5 C 3.785156 -2.675781 3.460938 -2.8125 3.015625 -2.90625 L 2.46875 -3.015625 C 1.8125 -3.148438 1.332031 -3.359375 1.03125 -3.640625 C 0.738281 -3.921875 0.59375 -4.3125 0.59375 -4.8125 C 0.59375 -5.382812 0.796875 -5.835938 1.203125 -6.171875 C 1.609375 -6.515625 2.171875 -6.6875 2.890625 -6.6875 C 3.203125 -6.6875 3.515625 -6.65625 3.828125 -6.59375 C 4.148438 -6.539062 4.476562 -6.457031 4.8125 -6.34375 Z M 4.8125 -6.34375 "/>
</symbol>
<symbol overflow="visible" id="glyph0-2">
<path style="stroke:none;" d="M 0.890625 -6.5625 L 2.078125 -6.5625 L 4.984375 -1.078125 L 4.984375 -6.5625 L 5.84375 -6.5625 L 5.84375 0 L 4.65625 0 L 1.75 -5.484375 L 1.75 0 L 0.890625 0 Z M 0.890625 -6.5625 "/>
</symbol>
<symbol overflow="visible" id="glyph0-3">
<path style="stroke:none;" d="M 0.890625 -6.5625 L 1.765625 -6.5625 L 1.765625 -3.875 L 5 -3.875 L 5 -6.5625 L 5.890625 -6.5625 L 5.890625 0 L 5 0 L 5 -3.125 L 1.765625 -3.125 L 1.765625 0 L 0.890625 0 Z M 0.890625 -6.5625 "/>
</symbol>
</g>
</defs>
<g id="surface20861">
<rect x="0" y="0" width="300" height="300" style="fill:rgb(100%,100%,100%);fill-opacity:1;stroke:none;"/>
<path style="fill:none;stroke-width:1.2;stroke-linecap:butt;stroke-linejoin:miter;stroke:rgb(80%,80%,0%);stroke-opacity:1;stroke-miterlimit:10;" d="M 143.773438 122.53125 L 134.488281 127.800781 "/>
<path style="fill:none;stroke-width:1.2;stroke-linecap:butt;stroke-linejoin:miter;stroke:rgb(0%,0%,0%);stroke-opacity:1;stroke-miterlimit:10;" d="M 134.488281 127.800781 L 125.207031 133.066406 "/>
<path style="fill:none;stroke-width:1.2;stroke-linecap:butt;stroke-linejoin:miter;stroke:rgb(0%,0%,0%);stroke-opacity:1;stroke-miterlimit:10;" d="M 159.527344 136.933594 L 151.648438 129.734375 "/>
<path style="fill:none;stroke-width:1.2;stroke-linecap:butt;stroke-linejoin:miter;stroke:rgb(80%,80%,0%);stroke-opacity:1;stroke-miterlimit:10;" d="M 151.648438 129.734375 L 143.773438 122.53125 "/>
<path style=" stroke:none;fill-rule:nonzero;fill:rgb(100%,100%,100%);fill-opacity:1;" d="M 140.773438 117.03125 L 146.773438 117.03125 L 146.773438 128.03125 L 140.773438 128.03125 Z M 140.773438 117.03125 "/>
<g style="fill:rgb(80%,80%,0%);fill-opacity:1;">
  <use xlink:href="#glyph0-1" x="140.773438" y="125.694336"/>
</g>
<path style="fill:none;stroke-width:1.2;stroke-linecap:butt;stroke-linejoin:miter;stroke:rgb(0%,0%,0%);stroke-opacity:1;stroke-miterlimit:10;" d="M 125.207031 133.066406 L 129.488281 153.976562 "/>
<path style="fill:none;stroke-width:1.2;stroke-linecap:butt;stroke-linejoin:miter;stroke:rgb(0%,0%,0%);stroke-opacity:1;stroke-miterlimit:10;" d="M 130.554688 134.148438 L 133.980469 150.878906 "/>
<path style="fill:none;stroke-width:1.2;stroke-linecap:butt;stroke-linejoin:miter;stroke:rgb(0%,0%,0%);stroke-opacity:1;stroke-miterlimit:10;" d="M 125.207031 133.066406 L 105.773438 124.238281 "/>
<path style="fill:none;stroke-width:1.2;stroke-linecap:butt;stroke-linejoin:miter;stroke:rgb(0%,0%,0%);stroke-opacity:1;stroke-miterlimit:10;" d="M 129.488281 153.976562 L 140.09375 155.171875 "/>
<path style="fill:none;stroke-width:1.2;stroke-linecap:butt;stroke-linejoin:miter;stroke:rgb(0%,0%,100%);stroke-opacity:1;stroke-miterlimit:10;" d="M 140.09375 155.171875 L 150.699219 156.367188 "/>
<path style="fill:none;stroke-width:1.2;stroke-linecap:butt;stroke-linejoin:miter;stroke:rgb(0%,0%,0%);stroke-opacity:1;stroke-miterlimit:10;" d="M 129.488281 153.976562 L 115.085938 169.730469 "/>
<path style="fill:none;stroke-width:1.2;stroke-linecap:butt;stroke-linejoin:miter;stroke:rgb(0%,0%,100%);stroke-opacity:1;stroke-miterlimit:10;" d="M 150.699219 156.367188 L 155.113281 146.652344 "/>
<path style="fill:none;stroke-width:1.2;stroke-linecap:butt;stroke-linejoin:miter;stroke:rgb(0%,0%,0%);stroke-opacity:1;stroke-miterlimit:10;" d="M 155.113281 146.652344 L 159.527344 136.933594 "/>
<path style="fill:none;stroke-width:1.2;stroke-linecap:butt;stroke-linejoin:miter;stroke:rgb(0%,0%,100%);stroke-opacity:1;stroke-miterlimit:10;" d="M 147.007812 152.347656 L 150.539062 144.574219 "/>
<path style="fill:none;stroke-width:1.2;stroke-linecap:butt;stroke-linejoin:miter;stroke:rgb(0%,0%,0%);stroke-opacity:1;stroke-miterlimit:10;" d="M 150.539062 144.574219 L 154.070312 136.800781 "/>
<path style=" stroke:none;fill-rule:nonzero;fill:rgb(100%,100%,100%);fill-opacity:1;" d="M 147.699219 150.867188 L 154.699219 150.867188 L 154.699219 161.867188 L 147.699219 161.867188 Z M 147.699219 150.867188 "/>
<g style="fill:rgb(0%,0%,100%);fill-opacity:1;">
  <use xlink:href="#glyph0-2" x="147.699219" y="159.530273"/>
</g>
<path style="fill:none;stroke-width:1.2;stroke-linecap:butt;stroke-linejoin:miter;stroke:rgb(0%,0%,0%);stroke-opacity:1;stroke-miterlimit:10;" d="M 159.527344 136.933594 L 169.984375 134.792969 "/>
<path style="fill:none;stroke-width:1.2;stroke-linecap:butt;stroke-linejoin:miter;stroke:rgb(0%,0%,100%);stroke-opacity:1;stroke-miterlimit:10;" d="M 169.984375 134.792969 L 180.4375 132.652344 "/>
<path style="fill:none;stroke-width:1.2;stroke-linecap:butt;stroke-linejoin:miter;stroke:rgb(0%,0%,100%);stroke-opacity:1;stroke-miterlimit:10;" d="M 180.4375 132.652344 L 187.519531 140.640625 "/>
<path style="fill:none;stroke-width:1.2;stroke-linecap:butt;stroke-linejoin:miter;stroke:rgb(0%,0%,0%);stroke-opacity:1;stroke-miterlimit:10;" d="M 187.519531 140.640625 L 194.601562 148.625 "/>
<path style=" stroke:none;fill-rule:nonzero;fill:rgb(100%,100%,100%);fill-opacity:1;" d="M 173.4375 127.152344 L 187.4375 127.152344 L 187.4375 138.152344 L 173.4375 138.152344 Z M 173.4375 127.152344 "/>
<g style="fill:rgb(0%,0%,100%);fill-opacity:1;">
  <use xlink:href="#glyph0-2" x="173.4375" y="135.81543"/>
  <use xlink:href="#glyph0-3" x="180.415039" y="135.81543"/>
</g>
<path style="fill:none;stroke-width:1.2;stroke-linecap:butt;stroke-linejoin:miter;stroke:rgb(0%,0%,0%);stroke-opacity:1;stroke-miterlimit:10;" d="M 194.601562 148.625 L 215.511719 144.34375 "/>
<path style="fill:none;stroke-width:1.2;stroke-linecap:butt;stroke-linejoin:miter;stroke:rgb(0%,0%,0%);stroke-opacity:1;stroke-miterlimit:10;" d="M 215.511719 144.34375 L 229.675781 160.3125 "/>
<path style="fill:none;stroke-width:1.2;stroke-linecap:butt;stroke-linejoin:miter;stroke:rgb(0%,0%,0%);stroke-opacity:1;stroke-miterlimit:10;" d="M 220.6875 142.609375 L 232.015625 155.382812 "/>
<path style="fill:none;stroke-width:1.2;stroke-linecap:butt;stroke-linejoin:miter;stroke:rgb(0%,0%,0%);stroke-opacity:1;stroke-miterlimit:10;" d="M 222.261719 124.09375 L 215.511719 144.34375 "/>
<path style="fill:none;stroke-width:1.2;stroke-linecap:butt;stroke-linejoin:miter;stroke:rgb(0%,0%,0%);stroke-opacity:1;stroke-miterlimit:10;" d="M 229.675781 160.3125 L 250.585938 156.03125 "/>
<path style="fill:none;stroke-width:1.2;stroke-linecap:butt;stroke-linejoin:miter;stroke:rgb(0%,0%,0%);stroke-opacity:1;stroke-miterlimit:10;" d="M 250.585938 156.03125 L 257.335938 135.78125 "/>
<path style="fill:none;stroke-width:1.2;stroke-linecap:butt;stroke-linejoin:miter;stroke:rgb(0%,0%,0%);stroke-opacity:1;stroke-miterlimit:10;" d="M 246.496094 152.417969 L 251.898438 136.21875 "/>
<path style="fill:none;stroke-width:1.2;stroke-linecap:butt;stroke-linejoin:miter;stroke:rgb(0%,0%,0%);stroke-opacity:1;stroke-miterlimit:10;" d="M 250.585938 156.03125 L 264.75 172.003906 "/>
<path style="fill:none;stroke-width:1.2;stroke-linecap:butt;stroke-linejoin:miter;stroke:rgb(0%,0%,0%);stroke-opacity:1;stroke-miterlimit:10;" d="M 257.335938 135.78125 L 243.171875 119.8125 "/>
<path style="fill:none;stroke-width:1.2;stroke-linecap:butt;stroke-linejoin:miter;stroke:rgb(0%,0%,0%);stroke-opacity:1;stroke-miterlimit:10;" d="M 243.171875 119.8125 L 222.261719 124.09375 "/>
<path style="fill:none;stroke-width:1.2;stroke-linecap:butt;stroke-linejoin:miter;stroke:rgb(0%,0%,0%);stroke-opacity:1;stroke-miterlimit:10;" d="M 242.089844 125.160156 L 225.359375 128.585938 "/>
<path style="fill:none;stroke-width:1.2;stroke-linecap:butt;stroke-linejoin:miter;stroke:rgb(0%,0%,0%);stroke-opacity:1;stroke-miterlimit:10;" d="M 243.171875 119.8125 L 249.921875 99.5625 "/>
<path style="fill:none;stroke-width:1.2;stroke-linecap:butt;stroke-linejoin:miter;stroke:rgb(0%,0%,0%);stroke-opacity:1;stroke-miterlimit:10;" d="M 115.085938 169.730469 L 104.664062 167.433594 "/>
<path style="fill:none;stroke-width:1.2;stroke-linecap:butt;stroke-linejoin:miter;stroke:rgb(0%,0%,100%);stroke-opacity:1;stroke-miterlimit:10;" d="M 104.664062 167.433594 L 94.242188 165.136719 "/>
<path style="fill:none;stroke-width:1.2;stroke-linecap:butt;stroke-linejoin:miter;stroke:rgb(0%,0%,0%);stroke-opacity:1;stroke-miterlimit:10;" d="M 111.921875 174.175781 L 103.582031 172.339844 "/>
<path style="fill:none;stroke-width:1.2;stroke-linecap:butt;stroke-linejoin:miter;stroke:rgb(0%,0%,100%);stroke-opacity:1;stroke-miterlimit:10;" d="M 103.582031 172.339844 L 95.246094 170.5 "/>
<path style="fill:none;stroke-width:1.2;stroke-linecap:butt;stroke-linejoin:miter;stroke:rgb(0%,0%,0%);stroke-opacity:1;stroke-miterlimit:10;" d="M 121.527344 190.082031 L 115.085938 169.730469 "/>
<path style="fill:none;stroke-width:1.2;stroke-linecap:butt;stroke-linejoin:miter;stroke:rgb(0%,0%,100%);stroke-opacity:1;stroke-miterlimit:10;" d="M 94.242188 165.136719 L 87.039062 173.015625 "/>
<path style="fill:none;stroke-width:1.2;stroke-linecap:butt;stroke-linejoin:miter;stroke:rgb(0%,0%,0%);stroke-opacity:1;stroke-miterlimit:10;" d="M 87.039062 173.015625 L 79.839844 180.890625 "/>
<path style=" stroke:none;fill-rule:nonzero;fill:rgb(100%,100%,100%);fill-opacity:1;" d="M 91.242188 159.636719 L 98.242188 159.636719 L 98.242188 170.636719 L 91.242188 170.636719 Z M 91.242188 159.636719 "/>
<g style="fill:rgb(0%,0%,100%);fill-opacity:1;">
  <use xlink:href="#glyph0-2" x="91.242188" y="168.299805"/>
</g>
<path style="fill:none;stroke-width:1.2;stroke-linecap:butt;stroke-linejoin:miter;stroke:rgb(0%,0%,0%);stroke-opacity:1;stroke-miterlimit:10;" d="M 79.839844 180.890625 L 86.28125 201.242188 "/>
<path style="fill:none;stroke-width:1.2;stroke-linecap:butt;stroke-linejoin:miter;stroke:rgb(0%,0%,0%);stroke-opacity:1;stroke-miterlimit:10;" d="M 85.273438 181.410156 L 90.425781 197.691406 "/>
<path style="fill:none;stroke-width:1.2;stroke-linecap:butt;stroke-linejoin:miter;stroke:rgb(0%,0%,0%);stroke-opacity:1;stroke-miterlimit:10;" d="M 79.839844 180.890625 L 58.996094 176.296875 "/>
<path style="fill:none;stroke-width:1.2;stroke-linecap:butt;stroke-linejoin:miter;stroke:rgb(0%,0%,0%);stroke-opacity:1;stroke-miterlimit:10;" d="M 86.28125 201.242188 L 107.128906 205.835938 "/>
<path style="fill:none;stroke-width:1.2;stroke-linecap:butt;stroke-linejoin:miter;stroke:rgb(0%,0%,0%);stroke-opacity:1;stroke-miterlimit:10;" d="M 107.128906 205.835938 L 121.527344 190.082031 "/>
<path style="fill:none;stroke-width:1.2;stroke-linecap:butt;stroke-linejoin:miter;stroke:rgb(0%,0%,0%);stroke-opacity:1;stroke-miterlimit:10;" d="M 104.859375 200.871094 L 116.382812 188.269531 "/>
<path style="fill:none;stroke-width:1.2;stroke-linecap:butt;stroke-linejoin:miter;stroke:rgb(0%,0%,0%);stroke-opacity:1;stroke-miterlimit:10;" d="M 105.773438 124.238281 L 103.703125 102.992188 "/>
<path style="fill:none;stroke-width:1.2;stroke-linecap:butt;stroke-linejoin:miter;stroke:rgb(0%,0%,0%);stroke-opacity:1;stroke-miterlimit:10;" d="M 105.773438 124.238281 L 88.410156 136.652344 "/>
<path style="fill:none;stroke-width:1.2;stroke-linecap:butt;stroke-linejoin:miter;stroke:rgb(0%,0%,0%);stroke-opacity:1;stroke-miterlimit:10;" d="M 101.117188 121.394531 L 87.226562 131.324219 "/>
<path style="fill:none;stroke-width:1.2;stroke-linecap:butt;stroke-linejoin:miter;stroke:rgb(0%,0%,0%);stroke-opacity:1;stroke-miterlimit:10;" d="M 103.703125 102.992188 L 84.269531 94.164062 "/>
<path style="fill:none;stroke-width:1.2;stroke-linecap:butt;stroke-linejoin:miter;stroke:rgb(0%,0%,0%);stroke-opacity:1;stroke-miterlimit:10;" d="M 99.683594 106.683594 L 84.136719 99.621094 "/>
<path style="fill:none;stroke-width:1.2;stroke-linecap:butt;stroke-linejoin:miter;stroke:rgb(0%,0%,0%);stroke-opacity:1;stroke-miterlimit:10;" d="M 84.269531 94.164062 L 66.90625 106.582031 "/>
<path style="fill:none;stroke-width:1.2;stroke-linecap:butt;stroke-linejoin:miter;stroke:rgb(0%,0%,0%);stroke-opacity:1;stroke-miterlimit:10;" d="M 66.90625 106.582031 L 67.941406 117.203125 "/>
<path style="fill:none;stroke-width:1.2;stroke-linecap:butt;stroke-linejoin:miter;stroke:rgb(0%,0%,100%);stroke-opacity:1;stroke-miterlimit:10;" d="M 67.941406 117.203125 L 68.976562 127.824219 "/>
<path style="fill:none;stroke-width:1.2;stroke-linecap:butt;stroke-linejoin:miter;stroke:rgb(0%,0%,100%);stroke-opacity:1;stroke-miterlimit:10;" d="M 46.0625 101.984375 L 56.484375 104.28125 "/>
<path style="fill:none;stroke-width:1.2;stroke-linecap:butt;stroke-linejoin:miter;stroke:rgb(0%,0%,0%);stroke-opacity:1;stroke-miterlimit:10;" d="M 56.484375 104.28125 L 66.90625 106.582031 "/>
<path style="fill:none;stroke-width:1.2;stroke-linecap:butt;stroke-linejoin:miter;stroke:rgb(0%,0%,100%);stroke-opacity:1;stroke-miterlimit:10;" d="M 47.066406 107.347656 L 55.402344 109.1875 "/>
<path style="fill:none;stroke-width:1.2;stroke-linecap:butt;stroke-linejoin:miter;stroke:rgb(0%,0%,0%);stroke-opacity:1;stroke-miterlimit:10;" d="M 55.402344 109.1875 L 63.742188 111.023438 "/>
<path style="fill:none;stroke-width:1.2;stroke-linecap:butt;stroke-linejoin:miter;stroke:rgb(0%,0%,100%);stroke-opacity:1;stroke-miterlimit:10;" d="M 68.976562 127.824219 L 49.414062 136.359375 "/>
<path style="fill:none;stroke-width:1.2;stroke-linecap:butt;stroke-linejoin:miter;stroke:rgb(0%,0%,100%);stroke-opacity:1;stroke-miterlimit:10;" d="M 68.976562 127.824219 L 78.695312 132.238281 "/>
<path style="fill:none;stroke-width:1.2;stroke-linecap:butt;stroke-linejoin:miter;stroke:rgb(0%,0%,0%);stroke-opacity:1;stroke-miterlimit:10;" d="M 78.695312 132.238281 L 88.410156 136.652344 "/>
<path style=" stroke:none;fill-rule:nonzero;fill:rgb(100%,100%,100%);fill-opacity:1;" d="M 65.976562 122.324219 L 72.976562 122.324219 L 72.976562 133.324219 L 65.976562 133.324219 Z M 65.976562 122.324219 "/>
<g style="fill:rgb(0%,0%,100%);fill-opacity:1;">
  <use xlink:href="#glyph0-2" x="65.976562" y="130.987305"/>
</g>
<path style="fill:none;stroke-width:1.2;stroke-linecap:butt;stroke-linejoin:miter;stroke:rgb(0%,0%,100%);stroke-opacity:1;stroke-miterlimit:10;" d="M 49.414062 136.359375 L 42.332031 128.375 "/>
<path style="fill:none;stroke-width:1.2;stroke-linecap:butt;stroke-linejoin:miter;stroke:rgb(0%,0%,0%);stroke-opacity:1;stroke-miterlimit:10;" d="M 42.332031 128.375 L 35.25 120.390625 "/>
<path style="fill:none;stroke-width:1.2;stroke-linecap:butt;stroke-linejoin:miter;stroke:rgb(0%,0%,100%);stroke-opacity:1;stroke-miterlimit:10;" d="M 51.753906 131.429688 L 46.089844 125.042969 "/>
<path style="fill:none;stroke-width:1.2;stroke-linecap:butt;stroke-linejoin:miter;stroke:rgb(0%,0%,0%);stroke-opacity:1;stroke-miterlimit:10;" d="M 46.089844 125.042969 L 40.425781 118.652344 "/>
<path style=" stroke:none;fill-rule:nonzero;fill:rgb(100%,100%,100%);fill-opacity:1;" d="M 46.414062 130.859375 L 53.414062 130.859375 L 53.414062 141.859375 L 46.414062 141.859375 Z M 46.414062 130.859375 "/>
<g style="fill:rgb(0%,0%,100%);fill-opacity:1;">
  <use xlink:href="#glyph0-2" x="46.414062" y="139.522461"/>
</g>
<path style="fill:none;stroke-width:1.2;stroke-linecap:butt;stroke-linejoin:miter;stroke:rgb(0%,0%,0%);stroke-opacity:1;stroke-miterlimit:10;" d="M 35.25 120.390625 L 40.65625 111.1875 "/>
<path style="fill:none;stroke-width:1.2;stroke-linecap:butt;stroke-linejoin:miter;stroke:rgb(0%,0%,100%);stroke-opacity:1;stroke-miterlimit:10;" d="M 40.65625 111.1875 L 46.0625 101.984375 "/>
<path style=" stroke:none;fill-rule:nonzero;fill:rgb(100%,100%,100%);fill-opacity:1;" d="M 43.0625 96.484375 L 50.0625 96.484375 L 50.0625 107.484375 L 43.0625 107.484375 Z M 43.0625 96.484375 "/>
<g style="fill:rgb(0%,0%,100%);fill-opacity:1;">
  <use xlink:href="#glyph0-2" x="43.0625" y="105.147461"/>
</g>
</g>
</svg>

<svg xmlns="http://www.w3.org/2000/svg" xmlns:xlink="http://www.w3.org/1999/xlink" width="300pt" height="300pt" viewBox="0 0 300 300"><defs><symbol overflow="visible"><path d="M.453 1.594v-7.938h4.5v7.938zm.5-.5h3.5v-6.938h-3.5zm0 0"/></symbol><symbol overflow="visible" id="a"><path d="M4.813-6.344v.86c-.336-.157-.653-.27-.954-.344-.294-.082-.58-.125-.86-.125-.492 0-.867.094-1.125.28-.262.19-.39.454-.39.798 0 .293.085.512.265.656.176.15.504.267.984.36l.547.11c.658.125 1.142.352 1.454.672.32.312.485.734.485 1.265 0 .637-.216 1.122-.642 1.454-.43.325-1.055.485-1.875.485-.312 0-.648-.04-1-.11C1.36-.046 1-.147.625-.296v-.906c.352.2.703.35 1.047.453.35.105.695.156 1.03.156.5 0 .884-.097 1.157-.297.28-.196.42-.485.42-.86 0-.32-.1-.57-.296-.75-.2-.176-.523-.313-.968-.406l-.547-.11C1.81-3.148 1.33-3.36 1.03-3.64.74-3.923.595-4.313.595-4.813c0-.57.203-1.024.61-1.36.405-.344.968-.516 1.687-.516.313 0 .626.032.938.094.32.055.65.137.985.25zm0 0"/></symbol><symbol overflow="visible" id="b"><path d="M.89-6.563H2.08l2.906 5.485v-5.484h.86V0H4.656L1.75-5.484V0H.89zm0 0"/></symbol><symbol overflow="visible" id="c"><path d="M.89-6.563h.876v2.688H5v-2.688h.89V0H5v-3.125H1.766V0H.89zm0 0"/></symbol></defs><g><path fill="#fff" d="M0 0h300v300H0z"/><path d="M143.773 122.53l-9.285 5.27" stroke-width="1.2" stroke="#cc0" stroke-miterlimit="10" fill="none"/><path d="M134.488 127.8l-9.28 5.266M159.527 136.934l-7.88-7.2" stroke-width="1.2" stroke="#000" stroke-miterlimit="10" fill="none"/><path d="M151.648 129.734l-7.875-7.203" stroke-width="1.2" stroke="#cc0" stroke-miterlimit="10" fill="none"/><path d="M140.773 117.03h6v11h-6zm0 0" fill="#fff"/><use xlink:href="#a" x="140.773" y="125.694" fill="#cc0"/><path d="M125.207 133.066l4.28 20.91M130.555 134.148l3.425 16.73M125.207 133.066l-19.434-8.828M129.488 153.977l10.606 1.195" stroke-width="1.2" stroke="#000" stroke-miterlimit="10" fill="none"/><path d="M140.094 155.172l10.605 1.195" stroke-width="1.2" stroke="#00f" stroke-miterlimit="10" fill="none"/><path d="M129.488 153.977l-14.402 15.753" stroke-width="1.2" stroke="#000" stroke-miterlimit="10" fill="none"/><path d="M150.7 156.367l4.413-9.715" stroke-width="1.2" stroke="#00f" stroke-miterlimit="10" fill="none"/><path d="M155.113 146.652l4.414-9.718" stroke-width="1.2" stroke="#000" stroke-miterlimit="10" fill="none"/><path d="M147.008 152.348l3.53-7.774" stroke-width="1.2" stroke="#00f" stroke-miterlimit="10" fill="none"/><path d="M150.54 144.574l3.53-7.773" stroke-width="1.2" stroke="#000" stroke-miterlimit="10" fill="none"/><path d="M147.7 150.867h7v11h-7zm0 0" fill="#fff"/><use xlink:href="#b" x="147.699" y="159.53" fill="#00f"/><path d="M159.527 136.934l10.457-2.14" stroke-width="1.2" stroke="#000" stroke-miterlimit="10" fill="none"/><path d="M169.984 134.793l10.453-2.14M180.438 132.652l7.082 7.99" stroke-width="1.2" stroke="#00f" stroke-miterlimit="10" fill="none"/><path d="M187.52 140.64l7.082 7.985" stroke-width="1.2" stroke="#000" stroke-miterlimit="10" fill="none"/><path d="M173.438 127.152h14v11h-14zm0 0" fill="#fff"/><g fill="#00f"><use xlink:href="#b" x="173.438" y="135.815"/><use xlink:href="#c" x="180.415" y="135.815"/></g><path d="M194.602 148.625l20.91-4.28M215.512 144.344l14.164 15.97M220.688 142.61l11.328 12.773M222.262 124.094l-6.75 20.25M229.676 160.313l20.91-4.282M250.586 156.03l6.75-20.25M246.496 152.418l5.402-16.2M250.586 156.03l14.164 15.974M257.336 135.78l-14.164-15.968M243.172 119.813l-20.91 4.28M242.09 125.16l-16.73 3.426M243.172 119.813l6.75-20.25M115.086 169.73l-10.422-2.296" stroke-width="1.2" stroke="#000" stroke-miterlimit="10" fill="none"/><path d="M104.664 167.434l-10.422-2.297" stroke-width="1.2" stroke="#00f" stroke-miterlimit="10" fill="none"/><path d="M111.922 174.176l-8.34-1.836" stroke-width="1.2" stroke="#000" stroke-miterlimit="10" fill="none"/><path d="M103.582 172.34l-8.336-1.84" stroke-width="1.2" stroke="#00f" stroke-miterlimit="10" fill="none"/><path d="M121.527 190.082l-6.44-20.352" stroke-width="1.2" stroke="#000" stroke-miterlimit="10" fill="none"/><path d="M94.242 165.137l-7.203 7.88" stroke-width="1.2" stroke="#00f" stroke-miterlimit="10" fill="none"/><path d="M87.04 173.016l-7.2 7.875" stroke-width="1.2" stroke="#000" stroke-miterlimit="10" fill="none"/><path d="M91.242 159.637h7v11h-7zm0 0" fill="#fff"/><use xlink:href="#b" x="91.242" y="168.3" fill="#00f"/><path d="M79.84 180.89l6.44 20.352M85.273 181.41l5.153 16.28M79.84 180.89l-20.844-4.593M86.28 201.242l20.85 4.594M107.13 205.836l14.397-15.754M104.86 200.87l11.523-12.6M105.773 124.238l-2.07-21.246M105.773 124.238L88.41 136.652M101.117 121.395l-13.89 9.93M103.703 102.992L84.27 94.164M99.684 106.684L84.137 99.62M84.27 94.164l-17.364 12.418M66.906 106.582l1.035 10.62" stroke-width="1.2" stroke="#000" stroke-miterlimit="10" fill="none"/><path d="M67.94 117.203l1.037 10.62M46.063 101.984l10.42 2.297" stroke-width="1.2" stroke="#00f" stroke-miterlimit="10" fill="none"/><path d="M56.484 104.28l10.422 2.302" stroke-width="1.2" stroke="#000" stroke-miterlimit="10" fill="none"/><path d="M47.066 107.348l8.336 1.84" stroke-width="1.2" stroke="#00f" stroke-miterlimit="10" fill="none"/><path d="M55.402 109.188l8.34 1.835" stroke-width="1.2" stroke="#000" stroke-miterlimit="10" fill="none"/><path d="M68.977 127.824l-19.563 8.535M68.977 127.824l9.718 4.414" stroke-width="1.2" stroke="#00f" stroke-miterlimit="10" fill="none"/><path d="M78.695 132.238l9.715 4.414" stroke-width="1.2" stroke="#000" stroke-miterlimit="10" fill="none"/><path d="M65.977 122.324h7v11h-7zm0 0" fill="#fff"/><use xlink:href="#b" x="65.977" y="130.987" fill="#00f"/><path d="M49.414 136.36l-7.082-7.985" stroke-width="1.2" stroke="#00f" stroke-miterlimit="10" fill="none"/><path d="M42.332 128.375l-7.082-7.984" stroke-width="1.2" stroke="#000" stroke-miterlimit="10" fill="none"/><path d="M51.754 131.43l-5.664-6.387" stroke-width="1.2" stroke="#00f" stroke-miterlimit="10" fill="none"/><path d="M46.09 125.043l-5.664-6.39" stroke-width="1.2" stroke="#000" stroke-miterlimit="10" fill="none"/><path d="M46.414 130.86h7v11h-7zm0 0" fill="#fff"/><use xlink:href="#b" x="46.414" y="139.522" fill="#00f"/><path d="M35.25 120.39l5.406-9.203" stroke-width="1.2" stroke="#000" stroke-miterlimit="10" fill="none"/><path d="M40.656 111.188l5.407-9.204" stroke-width="1.2" stroke="#00f" stroke-miterlimit="10" fill="none"/><path d="M43.063 96.484h7v11h-7zm0 0" fill="#fff"/><use xlink:href="#b" x="43.063" y="105.147" fill="#00f"/></g></svg>
